lib/brands/icons/readme-so.svg

<svg xmlns="http://www.w3.org/2000/svg" fill="none" aria-hidden="true" viewBox="0 0 48 48"><g id="readme-so-Icon" clip-path="url(#clip0_94_16928)"><g id="Group"><path id="Vector" fill="url(#paint0_linear_94_16928)" d="M6 12.3474C6 8.84181 8.84181 6 12.3474 6H35.6526C39.1582 6 42 8.84181 42 12.3474V35.6526C42 39.1582 39.1582 42 35.6526 42H12.3474C8.84181 42 6 39.1582 6 35.6526V12.3474Z"/><g id="Group_2" filter="url(#filter0_di_94_16928)"><mask id="mask0_94_16928" width="28" height="26" x="10" y="11" maskUnits="userSpaceOnUse" style="mask-type:alpha"><g id="mask0"><path id="Vector_2" fill="white" fill-rule="evenodd" d="M32.3524 14.8022C32.6844 13.5613 31.9489 12.286 30.7095 11.9536C29.4701 11.621 28.1962 12.3574 27.8641 13.5982L26.8541 17.3719H23.8499L24.5376 14.8022C24.8698 13.5613 24.1342 12.286 22.8949 11.9536C21.6554 11.621 20.3815 12.3574 20.0494 13.5982L19.0394 17.3719H14.7498C13.4667 17.3719 12.4264 18.4132 12.4264 19.6977C12.4264 20.9823 13.4667 22.0236 14.7498 22.0236H17.7943L17.002 24.9839H13.0601C11.777 24.9839 10.7368 26.0252 10.7368 27.3097C10.7368 28.5944 11.777 29.6356 13.0601 29.6356H15.757L14.829 33.1031C14.4968 34.344 15.2324 35.6193 16.4717 35.9517C17.7112 36.2843 18.9851 35.5479 19.3171 34.3071L20.5675 29.6356H23.5717L22.6436 33.1031C22.3115 34.344 23.047 35.6193 24.2865 35.9517C25.5258 36.2843 26.7997 35.5479 27.1319 34.3071L28.3821 29.6356H33.2305C34.5136 29.6356 35.5537 28.5944 35.5537 27.3097C35.5537 26.0252 34.5136 24.9839 33.2305 24.9839H29.6272L30.4195 22.0236H34.9201C36.2032 22.0236 37.2434 20.9823 37.2434 19.6977C37.2434 18.4132 36.2032 17.3719 34.9201 17.3719H31.6646L32.3524 14.8022ZM21.8125 24.9839H24.8167L25.609 22.0236H22.6048L21.8125 24.9839Z" clip-rule="evenodd"/></g></mask><g mask="url(#mask0_94_16928)"><g id="Group_3"><path id="Vector_3" fill="#A3FFE0" d="M44.038 24.0684L20.7183 0.969055L13.7004 7.92056L37.0202 31.0199L44.038 24.0684Z"/><path id="Vector_4" fill="#62FFCB" d="M37.02 31.02L13.7002 7.92059L6.68236 14.8721L30.0021 37.9715L37.02 31.02Z"/><path id="Vector_5" fill="#2CFFB9" d="M30.0019 37.9714L6.68213 14.8721L-0.335703 21.8236L22.9841 44.9229L30.0019 37.9714Z"/></g></g></g></g></g><defs><filter id="filter0_di_94_16928" width="46.5068" height="44.1579" x="0.736816" y="4.87372" color-interpolation-filters="sRGB" filterUnits="userSpaceOnUse"><feFlood flood-opacity="0" result="BackgroundImageFix"/><feColorMatrix in="SourceAlpha" result="hardAlpha" values="0 0 0 0 0 0 0 0 0 0 0 0 0 0 0 0 0 0 127 0"/><feOffset dy="3"/><feGaussianBlur stdDeviation="5"/><feColorMatrix values="0 0 0 0 0 0 0 0 0 0 0 0 0 0 0 0 0 0 0.25 0"/><feBlend in2="BackgroundImageFix" result="effect1_dropShadow_94_16928"/><feBlend in="SourceGraphic" in2="effect1_dropShadow_94_16928" result="shape"/><feColorMatrix in="SourceAlpha" result="hardAlpha" values="0 0 0 0 0 0 0 0 0 0 0 0 0 0 0 0 0 0 127 0"/><feOffset dy="25"/><feGaussianBlur stdDeviation="2.5"/><feComposite in2="hardAlpha" k2="-1" k3="1" operator="arithmetic"/><feColorMatrix values="0 0 0 0 1 0 0 0 0 1 0 0 0 0 1 0 0 0 0.1 0"/><feBlend in2="shape" result="effect2_innerShadow_94_16928"/></filter><linearGradient id="paint0_linear_94_16928" x1="24" x2="24" y1="6" y2="42" gradientUnits="userSpaceOnUse"><stop stop-color="#50ECB8"/><stop offset="1" stop-color="#2FC090"/></linearGradient><clipPath id="clip0_94_16928"><rect width="48" height="48" fill="white"/></clipPath></defs></svg>

<svg xmlns="http://www.w3.org/2000/svg" fill="none" aria-hidden="true" viewBox="0 0 48 48"><g clip-path="url(#a)"><path fill="url(#b)" d="M6 12.347A6.347 6.347 0 0 1 12.347 6h23.306A6.347 6.347 0 0 1 42 12.347v23.306A6.347 6.347 0 0 1 35.653 42H12.347A6.347 6.347 0 0 1 6 35.653V12.347Z"/><g filter="url(#c)"><mask id="d" width="28" height="26" x="10" y="11" maskUnits="userSpaceOnUse" style="mask-type:alpha"><path fill="#fff" fill-rule="evenodd" d="M32.352 14.802a2.323 2.323 0 1 0-4.488-1.204l-1.01 3.774H23.85l.688-2.57a2.323 2.323 0 1 0-4.488-1.204l-1.01 3.774h-4.29a2.325 2.325 0 0 0-2.324 2.326 2.325 2.325 0 0 0 2.324 2.326h3.044l-.792 2.96H13.06a2.325 2.325 0 0 0-2.323 2.326 2.325 2.325 0 0 0 2.323 2.326h2.697l-.928 3.467a2.323 2.323 0 1 0 4.488 1.204l1.25-4.671h3.005l-.928 3.467a2.323 2.323 0 1 0 4.488 1.204l1.25-4.671h4.848a2.324 2.324 0 0 0 2.324-2.326 2.324 2.324 0 0 0-2.324-2.326h-3.603l.793-2.96h4.5a2.325 2.325 0 0 0 2.323-2.326 2.325 2.325 0 0 0-2.323-2.326h-3.255l.687-2.57Zm-10.54 10.182h3.005l.792-2.96h-3.004l-.793 2.96Z" clip-rule="evenodd"/></mask><g mask="url(#d)"><path fill="#A3FFE0" d="M44.038 24.068 20.718.97 13.7 7.921 37.02 31.02l7.018-6.952Z"/><path fill="#62FFCB" d="M37.02 31.02 13.7 7.92l-7.018 6.952 23.32 23.1 7.018-6.952Z"/><path fill="#2CFFB9" d="M30.002 37.971 6.682 14.872l-7.018 6.952 23.32 23.099 7.018-6.952Z"/></g></g></g><defs><linearGradient id="b" x1="24" x2="24" y1="6" y2="42" gradientUnits="userSpaceOnUse"><stop stop-color="#50ECB8"/><stop offset="1" stop-color="#2FC090"/></linearGradient><clipPath id="a"><path fill="#fff" d="M0 0h48v48H0z"/></clipPath><filter id="c" width="46.507" height="44.158" x=".737" y="4.874" color-interpolation-filters="sRGB" filterUnits="userSpaceOnUse"><feFlood flood-opacity="0" result="BackgroundImageFix"/><feColorMatrix in="SourceAlpha" result="hardAlpha" values="0 0 0 0 0 0 0 0 0 0 0 0 0 0 0 0 0 0 127 0"/><feOffset dy="3"/><feGaussianBlur stdDeviation="5"/><feColorMatrix values="0 0 0 0 0 0 0 0 0 0 0 0 0 0 0 0 0 0 0.25 0"/><feBlend in2="BackgroundImageFix" result="effect1_dropShadow_94_16928"/><feBlend in="SourceGraphic" in2="effect1_dropShadow_94_16928" result="shape"/><feColorMatrix in="SourceAlpha" result="hardAlpha" values="0 0 0 0 0 0 0 0 0 0 0 0 0 0 0 0 0 0 127 0"/><feOffset dy="25"/><feGaussianBlur stdDeviation="2.5"/><feComposite in2="hardAlpha" k2="-1" k3="1" operator="arithmetic"/><feColorMatrix values="0 0 0 0 1 0 0 0 0 1 0 0 0 0 1 0 0 0 0.1 0"/><feBlend in2="shape" result="effect2_innerShadow_94_16928"/></filter></defs></svg>
